X: 1
T: IRISH-AMERICAN -- REEL
C: Trad
B: Cole's 1000 Fiddle Tunes
R: reel
M: 2/4
L: 1/16
Z: Contributed 20000418022750 by John Chambers jcsd:world.std.com
K: F
((3vcde) \
| fage fcaf | bgeg fdcB | AFcF dFcF | AGG^F Gcde |
| fage fcaf | bgeg fdcB | ABcd efga | bgeg f2 :|
|: ufg \
| afcf Acfg | afcf Acfa | bag^f gdg=f | egfd cefg |
| afcf Acfg | afbg ecde | fcdB cABG | AFGE F2 :|
